X:12174
T:O'Gaff, Larry
M:6/8
L:1/8
K:G Major
f|g2G BAG|ded dBG|cec BdB|ABd def|!
g2G BAG|ded dBG|cec BdB|AGF G2:|!
B|def gfg|aba afd|dfg aga|bgf g2e|!
def gfe|ded dBG|cec BdB|[1 AGF G2:|[2 ABc de|]!
